X: 1
T: The Silver Spire
R: reel
M: 4/4
L: 1/8
K: Dmaj
|:FE|D2FE DFAc|dcdf edAF|GABG FGAF|GFED CEA,C|
D2FE DFAc|d2df edAF|G2BG F2AF|EA,CE D2:|
|:CB,|A,B,CD EFGE|GFEF GABc|dcBA Bcde|f2gf e2 (3ABc|
d2fd c2ec|dcdA BAFD|G2BG F2AF|EA,CE D2:|


Tune 240	Setting 22888

